X:4241
L:1/4
Q:1/2=90
M:4/4
K:G
|: D G G F/G/ | A E E2 | F/G/ A A/B/ A | B G G3/2 E/ | D G G F/G/ | A E E2 | F/G/ A D E/F/ | 
 G G G2 ::[K:D] A A B2 | A/B/ A F2 | G G E/F/ G | A A F/G/ A | A A B2 | A/B/ A F2 | G E E/G/F/E/ |1 
 D F D2 :|2 D2 B,!D.C.! =C |]

